!!!COM: Corelli, Arcangelo
!!!OTL: 
!!!ONM: Opus 6, No. 3
!!!OMV: 1
!!!CDT: 1653/2/17/-1713/1/8/
!!!OCY: Italia
**kern	**kern	**kern	**kern	**kern	**kern	**kern
*clefC	*clefG	*clefG	*clefG	*clefC	*clefG	*clefG
*k[b-e-]	*k[b-e-]	*k[b-e-]	*k[b-e-]	*k[b-e-]	*k[b-e-]	*k[b-e-]
*g:	*g:	*g:	*g:	*g:	*g:	*g:
*M4/4	*M4/4	*M4/4	*M4/4	*M4/4	*M4/4	*M4/4
=1	=1	=1	=1	=1	=1	=1
4.C	4.c	4.ee-	4.gg	4.C	4.ee-	4.gg
16r	16r	16r	16r	16r	16r	16r
16C	16c	16ee-	16gg	16C	16ee-	16gg
4.BB	4.g	4.dd	4.gg	4.BB	4.dd	4.gg
16r	16r	16r	16r	16r	16r	16r
16BB	16g	16dd	16gg	16BB	16dd	16gg
=2	=2	=2	=2	=2	=2	=2
8C	8e-	8ee-	8aa-	8C	8ee-	8aa-
8BB-	8g	8dd	8gg	8BB-	8dd	8gg
4AA-	4c	8.cc	8.ff	4AA-	8.cc	8.ff
.	.	16b	16gg	.	16b	16gg
4GG	4d	4b	4gg	4GG	4b	4gg
4r	4r	4r	4r	4r	4r	4r
=3	=3	=3	=3	=3	=3	=3
4.E-	4.e-	4.g	4.b-	4.E-	4.g	4.b-
16r	16r	16r	16r	16r	16r	16r
16E-	16e-	16g	16b-	16E-	16g	16b-
4.D	4.b-	4.f	4.b-	4.D	4.f	4.b-
16r	16r	16r	16r	16r	16r	16r
16D	16b-	16f	16b-	16D	16f	16b-
=4	=4	=4	=4	=4	=4	=4
8E-	8g	8g	8cc	8E-	8g	8cc
8D	8B-	8f	8b-	8D	8f	8b-
4C	4e-	8.e-	8.a	4C	8.e-	8.a
.	.	16d	16b-	.	16d	16b-
4BB-	4f	4d	4b-	4BB-	4d	4b-
4r	4r	4r	4r	8r	4r	8r
.	.	.	.	8G	.	8bb-
=5	=5	=5	=5	=5	=5	=5
1r	1r	1r	1r	4A-	2..r	8ccc
.	.	.	.	.	.	8ee-
.	.	.	.	4B-	.	8ee-
.	.	.	.	.	.	8ee-
.	.	.	.	4c	.	[2ee-
.	.	.	.	4G	.	.
.	.	.	.	.	8bb-	.
=6	=6	=6	=6	=6	=6	=6
2..r	2..r	2..r	2..r	4A-	8ccc	2ee-]
.	.	.	.	.	8ff	.
.	.	.	.	4A	8ff	.
.	.	.	.	.	8ff	.
.	.	.	.	4.B-	4.ff	4.dd
16r	16r	16r	16r	16r	16r	16r
16G	16g	16dd	16bb-	16G	16dd	16bb-
=7	=7	=7	=7	=7	=7	=7
8.c	8.e-	8.ee-	8.bb-	8.c	8.ee-	8.bb-
16c	16e-	16ee-	16ee-	16c	16ee-	16ee-
8.F	8.f	8.ee-	8.aa-	8.F	8.ee-	8.aa-
16F	16f	16cc	16aa-	16F	16cc	16aa-
4.B-	4.f	4.dd	4.aa-	4.B-	4.dd	4.aa-
16r	16r	16r	16r	16r	16r	16r
16E-	16g	16b-	16gg	16E-	16b-	16gg
=8	=8	=8	=8	=8	=8	=8
4A-	8e-	4a-	8cc	4A-	4a-	8cc
.	8f	.	8dd	.	.	8dd
4E-	8g	8g	8.ee-	4E-	8g	8.ee-
.	8a-	16f	.	.	16f	.
.	.	16e-	16a-	.	16e-	16a-
4B-	4.b-	4e-	4g	4B-	4e-	4g
4BB-	.	4d	4f	4BB-	4d	4f
.	8b-	.	.	.	.	.
=9	=9	=9	=9	=9	=9	=9
4.E-	4.g	4.e-	4.e-	4.E-	4.e-	4.e-
16r	16r	16r	16r	16r	16r	16r
16C	16c	16g	16ee-	16C	16g	16ee-
4BB	4G	4g	4dd	4.BB	4.g	4.dd
4r	4r	4r	4r	.	.	.
.	.	.	.	16r	16r	16r
.	.	.	.	16C	16ee-	16cc
=10	=10	=10	=10	=10	=10	=10
4..r	4..r	4..r	4..r	4.GG	4.dd	4.b
.	.	.	.	16r	16r	16r
16G	16g	16dd	16bb-	16G	16dd	16bb-
4F#	4d	4dd	4aa	4.F#	4.dd	4.aa
4r	4r	4r	4r	.	.	.
.	.	.	.	16r	16r	16r
.	.	.	.	16G	16bb-	16gg
=11	=11	=11	=11	=11	=11	=11
4..r	4..r	4..r	4..r	4.D	4.aa	4.ff#
.	.	.	.	16r	16r	16r
16d	16dd	16ff#	16ddd	16d	16ff#	16ddd
8.e-	8.g	8.gg	8.ddd	8.e-	8.gg	8.ddd
16e-	16g	16gg	16gg	16e-	16gg	16gg
8.c	8.ee-	8.aa	8.ccc	8.c	8.aa	8.ccc
16c	16ee-	16aa	16ccc	16c	16aa	16ccc
=12	=12	=12	=12	=12	=12	=12
4F#	4a	4dd	4ccc	4F#	4dd	4ccc
8G	8g	2gg	8.bb-	8G	2gg	8.bb-
8C	8e-	.	.	8C	.	.
.	.	.	16aa	.	.	16aa
4D	4d	.	4bb-	4D	.	4bb-
4DD	4d	4ff#	4aa	4DD	4ff#	4aa
=13	=13	=13	=13	=13	=13	=13
4GG	4d	4gg	4gg	4GG	4gg	4gg
2.r	2.r	2.r	2.r	8r	8r	8r
.	.	.	.	8G	8bb-	8gg
.	.	.	.	8c	8bb-	8ee
.	.	.	.	8F	8aa-	8ff
.	.	.	.	8BB-	8.gg	8.ff
.	.	.	.	8C	.	.
.	.	.	.	.	16gg	16ee
=14	=14	=14	=14	=14	=14	=14
4.r	4.r	4.r	4.r	4FF	4aa-	4ff
.	.	.	.	8r	8r	8r
8F	8f	8aa-	8ff	8F	8aa-	8ff
8B-	8f	8aa-	8dd	8B-	8aa-	8dd
8E-	8g	8gg	8ee-	8E-	8gg	8ee-
8AA-	8c	8.ff	8.ee-	8AA-	8.ff	8.ee-
8BB-	8B-	.	.	8BB-	.	.
.	.	16ff	16dd	.	16ff	16dd
=15	=15	=15	=15	=15	=15	=15
4EE-	4B-	4gg	4ee-	4EE-	4gg	4ee-
2.r	2.r	2.r	2.r	8r	8r	8r
.	.	.	.	8B	8dd	8gg
.	.	.	.	8c	8ee-	8aa-
.	.	.	.	8B-	8dd	8gg
.	.	.	.	8A-	8cc	8ff
.	.	.	.	8G	8b-	8ee-
=16	=16	=16	=16	=16	=16	=16
4.r	4.r	4.r	4.r	8A-	8cc	8ff
.	.	.	.	8G	8b-	8ee-
.	.	.	.	8r	8r	8r
8G	8g	8b-	8ee-	8G	8b-	8ee-
8A-	8c	8cc	8ff	8A-	8cc	8ff
8G	8e-	8b-	8ee-	8G	8b-	8ee-
8F	8f	8a-	8dd	8F	8a-	8dd
8E-	8c	8g	8cc	8E-	8g	8cc
=17	=17	=17	=17	=17	=17	=17
8F	8f	8a-	8dd	8F	8a-	8dd
8E-	8c	8g	8cc	8E-	8g	8cc
2.r	2.r	2.r	2.r	8r	2.r	8r
.	.	.	.	8E-	.	8gg
.	.	.	.	4F	.	4aa-
.	.	.	.	4G	.	4b
=18	=18	=18	=18	=18	=18	=18
1r	1r	1r	1r	4A-	4.r	4cc
.	.	.	.	4E-	.	8r
.	.	.	.	.	8gg	8gg
.	.	.	.	4F	4aa-	8ccc
.	.	.	.	.	.	8ff
.	.	.	.	4G	4b	8ff
.	.	.	.	.	.	8ff
=19	=19	=19	=19	=19	=19	=19
4..r	4..r	4..r	4..r	4.A-	4.cc	8ff
.	.	.	.	.	.	8ee-
.	.	.	.	.	.	8.r
.	.	.	.	16r	16r	.
16E-	16g	16cc	16gg	16E-	16cc	16gg
4F	8.c	8.cc	8.aa-	4F	8.cc	8.aa-
.	16cc	16ee-	16gg	.	16ee-	16gg
4C	8.e	8ee-	8gg	4C	8ee-	8gg
.	.	16.dd	16.ff	.	16.dd	16.ff
.	16f	.	.	.	.	.
.	.	32cc	32ee-	.	32cc	32ee-
=20	=20	=20	=20	=20	=20	=20
4G	4g	4cc	4ee-	4G	4cc	4ee-
4GG	4g	4b	4dd	4GG	4b	4dd
4c	4g	4cc	[2cc	4c	4cc	[2cc
4B-	4g	4e	.	4B-	4e	.
=21	=21	=21	=21	=21	=21	=21
4A-	4cc	4f	4cc]	4A-	4f	4cc]
4E	4c	4.g	4b-	4E	4.g	4b-
4.F	4.c	.	4.a-	4.F	.	4.a-
.	.	8c	.	.	8c	.
.	.	[4f	.	.	[4f	.
8F	8f	.	8a-	8F	.	8a-
=22	=22	=22	=22	=22	=22	=22
4G	4d	4f]	4B	4G	4f]	4B
4F#	4a	4e-	2c	4F#	4e-	2c
4G	2g	2d	.	4G	2d	.
4GG	.	.	4B	4GG	.	4B
=23	=23	=23	=23	=23	=23	=23
4C	4g	4c	4c	4C	4c	4c
4r	4r	4r	4r	4r	4r	4r
4BB-	4G	4d	4g	4BB-	4d	4g
4r	4r	4r	4r	4r	4r	4r
=24	=24	=24	=24	=24	=24	=24
4AA-	4c	4c	4f	4AA-	4c	4f
4r	4r	4r	4r	4r	4r	4r
2GG	2d	2B	2g	2GG	2B	2g
==	==	==	==	==	==	==
*-	*-	*-	*-	*-	*-	*-
!!!RWG: This file only contains pitch and duration data.
!!!RWG: Transposing instruments are not transposed.
!!!RWG: Durations of rests and tied notes may be interpreted.
!!!RWG: Key is interpreted using the Humdrum key tool.
!!!SCA: 
!!!YOR: Chrysander Edition
!!!AGN: concerto grosso
!!!AFT: stage1
!!!ENC: F. Bennion
!!!END: 1997/04/15
!!!AST: baroque
!!!YEC: Copyright 1994, Center for Computer Assisted Research in the Humanities
!!!YEM: Rights to all derivative electronic formats reserved.
!!!YEM: Refer to licensing agreement for further details.
!!!YEN: United States of America
!!!EED: W.B. Hewlett
!!!KEY: 3775478681
!!!EMD: Converted from MuseData to Humdrum Aug 9, 1999, by Bret Aarden using muse2kern.
!!!VTS: 763305671
